X: 10281
Q: "Presto"
M: 2/4
L: 1/8
K: G
V: 1
d>d |\
.g2d>d | .g2d>d | (gfed) | {f/}(ed) d>d |\
.g2d>d | .g2 d>d | {d/}(cBcd) | B2 :|
|: f>f |\
(af)(c'a) | .g2f>f | (af)(c'a) | .g2d>d |\
(gfed) | {f/}(ed) d>d | {d/}(cBcd) | B2 :|
V: 2
.B2 B>B | {B/}(AGAB) | G2 :||: d>d | (fd)(af)  | .g2d>d |
(fd)(af)  | .g2B>B | (edcB) | {d/}(cB) B>B | {B/}(AGAB) | G2 :|


